icons/desktop/16/svg/canvas-slash-16.svg

<svg width="16" height="16" viewBox="0 0 16 16" fill="none" xmlns="http://www.w3.org/2000/svg">
<path fill-rule="evenodd" clip-rule="evenodd" d="M0.219792 0.21967C0.512685 -0.0732233 0.987446 -0.0732233 1.28034 0.21967L15.7803 14.7197C16.0732 15.0126 16.0732 15.4873 15.7803 15.7802C15.4874 16.0731 15.0127 16.0731 14.7198 15.7802L13.4317 14.4921C13.171 14.6163 12.8873 14.7017 12.586 14.7363C11.073 14.9113 9.53003 14.9999 8.00007 14.9999C6.48023 14.9999 4.94638 14.9122 3.43854 14.7392C2.04954 14.5802 1.00007 13.4039 1.00007 12.0029V3.99408C1.00007 3.44442 1.16129 2.9312 1.4405 2.50092L0.219792 1.28022C-0.0731012 0.987324 -0.0731012 0.512563 0.219792 0.21967ZM2.55671 3.61713C2.51982 3.73627 2.50007 3.86307 2.50007 3.99408V12.0029C2.50007 12.6409 2.97644 13.177 3.60944 13.249C6.4525 13.576 9.37077 13.582 12.2081 13.2685L10.8878 11.9482C10.7639 11.9816 10.6338 11.9999 10.4991 11.9999H5.49909C4.67109 11.9999 3.99909 11.3279 3.99909 10.4999V10.0283C3.99909 9.60031 4.13674 9.18279 4.39069 8.83881L5.8028 6.92768C5.81191 6.91536 5.82267 6.90442 5.8321 6.89252L2.55671 3.61713Z" fill="black"/>
<path d="M4.0401 1.2099C6.85892 0.929927 9.74476 0.936742 12.5616 1.26069C13.9506 1.41969 15.0001 2.59601 15.0001 3.99701V12.0058C15.0001 12.0578 14.9894 12.1062 14.9864 12.1572L13.5001 10.6708V3.99701C13.5001 3.35901 13.0237 2.82292 12.3907 2.75092C10.9388 2.58395 9.46294 2.49994 8.00007 2.49994C7.14307 2.49994 6.28287 2.53767 5.42487 2.59467L4.0401 1.2099Z" fill="black"/>
<path d="M11.0001 4.99994C11.5524 4.99994 12.0001 5.44766 12.0001 5.99994C12.0001 6.55223 11.5524 6.99994 11.0001 6.99994C10.4478 6.99994 10.0001 6.55223 10.0001 5.99994C10.0001 5.44766 10.4478 4.99994 11.0001 4.99994Z" fill="black"/>
</svg>

<!-- This Source Code Form is subject to the terms of the Mozilla Public
   - License, v. 2.0. If a copy of the MPL was not distributed with this
   - file, You can obtain one at http://mozilla.org/MPL/2.0/. -->
<svg xmlns="http://www.w3.org/2000/svg" width="16" height="16" fill="context-fill" fill-opacity="context-fill-opacity" viewBox="0 0 16 16">
    <path fill-rule="evenodd" d="M.22.22a.75.75 0 0 1 1.06 0l14.5 14.5a.75.75 0 1 1-1.06 1.06l-1.288-1.288c-.261.124-.545.21-.846.244a40 40 0 0 1-9.147.003A2.753 2.753 0 0 1 1 12.003V3.994c0-.55.161-1.063.44-1.493L.22 1.28A.75.75 0 0 1 .22.22m2.337 3.397q-.056.18-.057.377v8.009c0 .638.476 1.174 1.11 1.246a38.6 38.6 0 0 0 8.598.02l-1.32-1.32a1.5 1.5 0 0 1-.389.05h-5A1.5 1.5 0 0 1 4 10.5v-.47c0-.429.138-.846.392-1.19l1.412-1.911q.014-.019.03-.035z" clip-rule="evenodd" />
    <path d="M4.04 1.21a40.2 40.2 0 0 1 8.522.05A2.753 2.753 0 0 1 15 3.998v8.009c0 .052-.01.1-.014.151L13.5 10.671V3.997c0-.638-.476-1.174-1.11-1.246A39 39 0 0 0 8 2.5c-.857 0-1.717.038-2.575.095z" />
    <path d="M11 5a1 1 0 1 1 0 2 1 1 0 0 1 0-2" />
</svg>
